X:1
T:God is our Refuge and Strength
T:Motet KV 20
T:W.A. Mozart
%%score [ 1 2 ( 3 4 ) 5 ]
L:1/8
M:3/2
K:Bb
V:1 treble nm="Soprano" snm="S"
V:2 treble nm="Alto" snm="A"
V:3 treble-8 nm="Tenor" snm="T"
V:4 treble-8 
V:5 bass nm="Bass" snm="B"
V:1
 G6 G2 G4 | G4 A4 B4 | c4 d4 e4 | e12 | d4 d4 d4 | (d4 e4) c4 | (B6 A2) G4 | F12 | F4 z4 z4 | %9
w: God is our|Re- fuge, our|Re- fuge and|Strength,|a ve- ry|pre- * sent|help _ in|trou-|ble,|
 z4 z4 d4 | c8 B4 | A8 F4 | F12 | F8 c4 | (c4 B4) A4 | B4 A4 G4 | A8 A4 | d8 d4 | c8 c4 | B8 B4 | %20
w: a|pre- sent|help in|trou-|ble, God|is _ our|Re- fiuge and|Strength, a|ve- ry|pre- sent|help in|
 (B12 | A12) | G12 |] %23
w: trou-||ble.|
V:2
 z12 | z12 | C6 C2 C4 | C4 c4 B4 | A6 A2 A4 | A6 A2 A2 A2 | D6 C2 B,4 | C4 C8 | B,4 z4 z4 | %9
w: ||God is our|Re- fuge, our|Re- fuge and|Strength, a ve- ry|pre- sent help|in trou-|ble,|
 z4 z4 F4 | F8 F4 | F4 z4 z4 | z12 | z4 z4 A4 | D8 D4 | D12 | ^F8 F4 | F6 D2 G2 F2 | E8 E4 | G12 | %20
w: a|pre- sent|help||God|is our|Re-|fuge and|Strength, a ve- ry|pre- sent|help|
 G12- | G4 ^F8 | G12 |] %23
w: in|* trou-|ble.|
V:3
 z12 | z12 | z12 | z12 | ^f6 f2 f4 | ^f12 | g4 z4 d4 | =f8 e4 | d4 c4 B4 | B4 z4 z4 | z12 | %11
w: ||||God is our|Re-|fuge, God|is our|Re- fuge and|Strength,||
 z4 z4 d4 | c8 B4 | A4 z4 z4 | z12 | z12 | d4 d4 d4 | G8 G4 | G12 | =e12 | d12- | d12 | d12 |] %23
w: a|pre- sent|help|||a ve- ry|pr- sent|help|in|trou-||ble.|
V:4
 x12 | x12 | x12 | x12 | ^F6 F2 F4 | ^F12 | G2 z2 z8 | x12 | x12 | x12 | x12 | x12 | x12 | x12 | %14
 x12 | x12 | x12 | x12 | x12 | x12 | x12 | x12 | x12 |] %23
V:5
 z12 | z12 | z12 | z12 | z12 | z12 | G,6 G,2 G,4 | (A,2 G,2) F,4 A,4 | B,4 z4 z4 | D,4 B,,4 B,4 | %10
w: ||||||God is our|Re- * fuge and|Strength,|a ve- ry|
 A,8 G,4 | F,8 B,4 | A,8 G,4 | F,12 | ^F,12 | G,12 | D,6 A,,2 D,2 C,2 | =B,,8 B,,4 | C,12 | ^C,12 | %20
w: pre- sent|help a|pre- sent|help|in|trou-|ble, a ve- ry|pre- sent|help|in|
 D,12- | D,12 | G,,12 |] %23
w: trou-||ble.|

